X:1
T:Desecration Rag
T:Felix Ardnt
T:Arranged by Warren Trachtman, edited from his midi file by Piotr Barcz
%%score ( 1 2 ) ( 3 4 )
L:1/8
Q:1/4=204
M:4/4
K:G
V:1 treble nm="Piano" snm="Pno."
V:2 treble 
V:3 bass nm="Piano" snm="Pno."
V:4 bass 
V:1
"^Swing" z8 | =FGFG FGFG | A [=Fc]2 [FAd]2 cAF | .[=F_Bd=f]2 .[EBde]2 .[GBdg]2 .[FBdf]2 | %4
 [E_Be] [GBg]2 [=FBd=f]- [FBdf]>f [FBd]2 | [=FAc] [FAc]2 [FAd]- [FAd]>d [FAc]2 | [=FA=f]dcA FEDC | %7
 [B,=FG] [B,FG]2 [B,FA]- [B,FA]>A [B,FG]2 | [CEc]AGE DGEC | =FGFG FGFG | A [=Fc]2 [FAd]2 cAF | %11
 [=F_Bd=f]2 [EBde]2 [GBdg]2 [FBdf]2 | [E_Be] [GBg]2 [=FBd=f]- [FBdf]>f [FBd]2 | %13
 [=FAc] [FAc]2 [FA=f]- [FAf]>f F2 | [B,=FG] [B,FG]2 [CEc]- [CEc]>A [CEG]2 | %15
 [A,=F]FD [_B,C]2 [B,C]/D/ [B,C]2 | [A,=F]2 CB, CCFG | [=FA]3 [Aca]2 [Ac] [eg]2 | [Gcg]2 z2 z4 | %19
 z2 [d=f]=F [Fce] [F_Bd]3 | [DFAd]2 z2 z4 | z2 [G_B]2 [Ac] [Bd]3 | .[EA]>^G .[EA]>G A [Ec]3 | %23
 .[=FA]>^G .A>G [CEA] [_B,E=G]3 | [A,=F]2 .C>B, CCFG | [=FA]3 [Aca]2 [Ac] [eg]2 | [Gcg]2 z2 z4 | %27
 z2 [d=f]=F [Fce] [F_Bd]3 | [DFAd]2 z2 z4 | z2 [G_B]2 [Ac] [Bd]3 | .[EA]>^G .[EA]>G A [Ec]3 | %31
 [=FA]>^G .A>G [CEA] [_B,E=G]3 | .[A,=F]>C D>C .D>C .D>C | =fgfg fgfg | a[=fc'] z [fad']2 c'af | %35
 .[=f_bd'=f']2 .[ebd'e']2 .[gbd'g']2 .[fbd'f']2 | [e_be'] [gbg']2 [=fbd'=f']- [fbd'f']>f' [fbd']2 | %37
 [=fac'] [fac']2 [fad']- [fad']>d' [fac']2 | .[=fa=f']d'c'a fedc | [B=fg] [Bfg]2 [Bfa]2 a [Bfg]2 | %40
 [cec']age dgec | =f2 f g2 gfg | a [=fc']2 [fad']2 c'af | %43
 [=f_bd'=f']2 [ebd'e']2 [gbd'g']2 [fbd'f']2 | [e_be'] [gbg']2 [=fbd'=f']2 e'/f'/ [fbd']2 | %45
 [=fac'] [fac']2 [^gc'^g']2 =g'/^g'/ [gc']2 | b [^gd'^g']2 [=g=g']- [gg']>g' [g_bd']2 | %47
 [=fa=f']f'c' [e_bd']2 c' [ebd']2 | [=fac'=f']4 .[=FAcf]2 z2 | =F G2 F2 GFG | A [=Fc]2 [FAd]2 cAF | %51
 [=F_Bd=f][FBdf][EBde][GBdg]- [GBdg]3/2 z/ [FBdf]2 | [E_Be] [GBg]2 [=FBd=f]- [FBdf]>f [FBd]2 | %53
 [=FAc]2 [FAc][FAd]- [FAd]>d [FAc]2 | .[=FA=f]dcA FEDC | [B,=FG] [B,FG]2 [B,FA]2 z/ A/ [B,FG]2 | %56
 [CEc]AGE [E,C]_B,CE | [=F=f]G[Fd]G [Fc]G[FA]G | A [=Fc]2 [FAd]2 cAF | %59
 [=F_Bd=f]2 [EBde]2 [GBdg]2 [FBdf]2 | [E_Be] [GBg]2 [=FBd=f]- [FBdf]>f [FBd]2 | %61
 [=FAc] [FAc]2 [^Gc^g]- [Gcg]>g [Gc]2 | B [^Gd^g]2 [=G=g]- [Gg]>g [G_Bd]2 | %63
 [=FA=f]fc [E_Bd]2 c [EBd]2 | [=FAc=f]4 .[fac'=f']2 z2 | [=F,=F]2 [G,G]2 [^G,^G] [=G,=G]3 | %66
 [^G,^C=F^G]6 =GF | ^D=F [G,^CD]>F D/FD/ [G,_B,]2 | C>=F [C^D]6 | %69
 [=F,=F]2 [G,G]2 [^G,^G] [=G,=G]3 | [_B,_B]2 [^G,^G]2 [=G,=G]2 [=F,=F]2 | %71
 .^D>=F .[G,^CD]>F D2 [Gc]2 | [C^G]2 ^g^d cG^DC | [=F,=F]2 [G,G]2 [^G,^G]2 [=G,=G]2 | %74
 [_B,_B]2 [^G,^G]2 [=G,=G]2 [=F,=F]2 | ^D>=F [G,^CD]>F D/FD/ [G,_B,]2 | C=F [C^D]6 | %77
 [=F,=F]2 [G,G]2 [^G,^G] [=G,=G]3 | [_B,_B]2 [^G,^G]2 [=G,=G]2 [=F,=F]2 | %79
 [=F,_B,=F]2 [^DF^d]3 F [^C^c]2 | [CE_Bc]2 z3/2 b/ [cc']2 z2 | z =F z G z ^G z =G | %82
 [^G,^C=F^G]6 =GF | ^D=F [G,^CD]>F D/FD/ [G,_B,]2 | C>=F [C^D]6 | %85
 [=F,=F]2 [G,G]2 [^G,^G] [=G,=G]3 | [_B,_B]3 [^G,^G] [=G,=G]2 [=F,=F]2 | .^D=F.[G,^CD]F D2 [Gc]2 | %88
 [C^G]2 ^g^d cG^DC | [=F,=F]2 [G,G][^G,^G]- [G,G][G,G] [=G,=G]2 | %90
 [_B,_B] [^G,^G]2 [G,G] [=G,=G]2 [=F,=F]2 | ^D=F[G,^CD]F D/FD/ [G,_B,]2 | C=F [C^D]6 | %93
 [=F,=F]2 [G,G]2 [^G,^G] [=G,=G]3 | [_B,_B]2 [^G,^G]2 [=G,=G] [=F,=F]3 | [=F,_B,=F]2 z2 z F3 | %96
 [CE_Bc]2 z15/8 b/8 [cc']2 z2 | z2 B[^DGc]- [DGc]F [CDG]2 | .C2 [^D,G,C]2 _B, [D,G,C]3 | %99
 z2 A[^C=F_B]- [CFB]E [_B,CF]2 | _B,B,C ^D2 ^C =C2 | z2 B [^DGc]2 F [CDG]2 | %102
 .C2 [^D,G,C]2 _B, [D,G,C]3 | z2 A [^C=F_B]2 E [_B,CF]2 | _B,^G,=G, B,2 ^G, =G,2 | z2 GF GF G2 | %106
 z2 GF GF G2 | [C,E,G,]4 z2 z [EG] | [E_Bc]2 [EBd]2 [EBe]2 [=FB=f]2 | [G_Bg]2 [Ff] [Gg]2 e[EBd]c | %110
 [=Fc=f]2 [Gcg]2 [Afa]2 [_Bf_b]2 | [c=fac']2 [Bb] [cc']2 agf | [_B_b]2 [dd']2 [Gg]2 [Bb]2 | %113
 [Ee] [Gg]2 .[CE_Bc]3 z2 | z E=FA z B,CF | A, C2 =F,3 z2 | [G,G]2 [A,A]2 [B,B]2 [Cc]2 | %117
 [Dd]2 [^C^c] [D=Fd]2 B[B,FA]G | [Cc]2 [DGd]2 [Ee]2 [=Fc=f]2 | [Gcg] [Fcf]2 [Gcg]2 .g [Gce]2 | %120
 z c/e/ a/ec/ z2 [cea]2 | z c/e/ g/ec/ z2 [=FGd]2 | [Gce]^de [Gcg]2 [Ff] [Gcg]2 | %123
 [Ge]^de[Gcg]- [Gcg]f [Gcg]2 | z c/e/ a/ec/ z2 [cea]2 | z c/e/ g/ec/ z2 [=FGd]2 | %126
 e^de [GBg]2 [Ff] [GBg]2 | e^de [GBg]2 [Ff] [GBg]2 | z2 [eg]/b[eg]/ z2 [eg]2 | z2 [^dg]/b[dg]/ z4 | %130
 z2 [eg]/b[eg]/ z2 [eg]2 | z2 [^dg]/b[dg]/ z4 | z2 [dg]/b[dg]/ z2 [dgb]>^c' | %133
 [dad']2 z2 [DFAd]2 z2 | [GBdg]2 z2 z4 | z3/2 G/ [DB]G [^DAB]2 B,2 | z2 [EG]/B[EG]/ z2 [EGB]2 | %137
 z2 [EG]/B[EG]/ z4 | z3 [EG_Be]3 [EGBe]2 | z3 [EG_Be]3 [=F=B^c=f]2 | z2 [F_B]/^c[FB]/ z2 [FB]2 | %141
 z2 [F_B]/^c[FB]/ z4 | z2 z [FAcf]3 [FAcf]2 | z2 z [FAcf]3 [G^c^dg]2 | z2 [^Gc]/^d[Gc]/ z2 [Gc]2 | %145
 z2 [^Gc]/^d[Gc]/ z2 [Gcd]2 | z2 [Gce]/g[Gce]/ z2 [Gce]/g[Gce]/ | z2 [Gce]/g[Gce]/ z2 [Gce]2 | %148
 z2 [B,G]/A[B,G]/ z2 [B,G]/A[B,G]/ | z2 [B,G]/A[B,G]/ z2 [B,=FG]2 | A,2 ^G,/A,C/ E2 G,/A,C/ | %151
 E6 z2 | [Aa]2 [D=FAd]2 z [Ee] [FAd=f]2 | [EAce]2 ^G,/A,C/ E4 | %154
 A,/G,/A,/G,/ A,/G,/A,/G,/ A,/G,/A,/G,/ A,/G,/A,/G,/ | F,G,^G,A, _B, =B,3 | [cc']gae g [ca]2 g | %157
 [cc']gec [Gg]dBG | [Cc]GAE G [CA]2 G | [CEc]2 [CEB]2 .A/BA/ [CEG]2 | [Gg]deB d [Ge]2 d | %161
 [Gg]dBG [Dd]AFD | [G,G]DEB, D [G,B,E]2 D | [G,B,G]2 GG gGgG | [A,A]2 [C=F]/A,[CF]/ A,2 [B,B]2 | %165
 z2 [EA]2 z2 [GB]2 | [Ee]2 [Gc]/E[Gc]/ E2 [Ff]2 | z2 [Be]2 z2 [cf]2 | %168
 [B=fb][Aa][Gg] [Bfb]2 z [Gdg]2 | [cgc']4 [^cg^c']4 | [dgd']2 g'>f' g'2 g>f | g2 G>F G4 | %172
 [cc']gae g [ca]2 g | [cc']gec [Gg]dBG | [Cc]GAE G [CA]2 G | [CEc]2 [CEB]2 .A/BA/ [CEG]2 | %176
 [Gg]deB d [Ge]2 d | [Gg]dBG [Dd]AFD | [G,G]DEB, D [G,B,E]2 D | [G,B,G]2 GG gGgG | %180
 [Ff] [Gg]2 [=FB=f]2 GgG | [Ff] [Gg]2 [=FB=f]2 GgG | [Ff] [Gg]2 [Gce]2 GgG | %183
 [Ff] [Gg]2 [Gce]2 GgG | [Ff] [Gg]2 .[A=fa]3 [GBfg]2 | [Ff] [Gg]2 .[A=fa]3 [GBfg]2 | %186
 [Ff] [Gg]2 .[cegc']3 [Gceg]2 | [Ff] [Gg]2 [cegc']- [cegc']3- .[cegc'] | [E,A,]4 [=F,A,]3 A, | %189
 [E,A,]6 C,E, | [E,A,]4 [=F,A,]3 A, | [A,,C,E,A,]6 C,E, | [E,A,]4 [=F,A,]3 A, | %193
 [E,A,]2 A,E, [=F,C]2 [F,B,]2 | [E,B,] [E,A,]2 [=F,A,]2 ^G, [F,A,]2 | [E,A,]6 C,E, | %196
 [A,CEA]3- [A,CEA]/[GA]/ [A,DG]2 [A,D=F]2 | .[A,CE]>^D [A,CE]2 [A,C]4 | %198
 [CEA]2 .[CEA]>[GA] [A,DG]2 [A,D=F]2 | z3/2 ^D/ [A,CE]2 [A,C]4 | [E,A,]4 [=F,A,]3 A, | %201
 [E,A,]2 A,E, [=F,C]2 [F,B,]2 | [E,B,] [E,A,]2 [=F,A,]2 ^G, [F,A,]2 | A,2 C2 D2 E2 | =FGFG FGFG | %205
 A [=Fc]2 [FAd]2 cAF | [=F_Bd=f]2 [EBde]2 [GBdg]2 [FBdf]2 | [E_Be] [GBg]2 .[=FBd=f]3 [FBd]2 | %208
 [=FAc] [FAc]2 .[^Gc^g]3 [Gc]2 | B [^Gd^g]2 [=G=g]3 [G_Bd]2 | %210
 [=FAc=f]2 .[F^c]>=c .[F^c]>=c [F^c]2 | [F_Bf]>d .[Ec]>=B .[Ec]>B [Ec]2 | %212
 [=FA=f]2 .[f^c']>=c' .[f^c']>=c' [f^c']2 | [f_bf']2 .[egc']>=b .[egc']>b [egc']2 | %214
 [=fa=f']2 a'f' c'afc | A=FCA, z4 | C=FAc =fac'=f' | a'2 [=FA=f]2 [FAf]2 [FAf]2 | %218
 [=FA=f]2 z2 [fa=f']7/2 .=F,/ | =F,8- | F,8 |] %221
V:2
 x8 | x8 | x8 | x8 | x8 | x8 | x8 | x8 | x8 | x8 | x8 | x8 | x8 | x8 | x8 | x8 | x8 | x8 | x8 | %19
 x8 | x8 | x8 | x8 | x8 | x8 | x8 | x8 | x8 | x8 | x8 | x8 | x8 | x8 | x8 | x8 | x8 | x8 | x8 | %38
 x8 | x8 | x8 | x8 | x8 | x8 | x8 | x8 | x8 | x8 | x8 | x8 | x8 | x8 | x8 | x8 | x8 | x8 | x8 | %57
 x8 | x8 | x8 | x8 | x8 | x8 | x8 | x8 | x8 | x8 | x8 | x8 | x8 | x8 | x8 | x8 | x8 | x8 | x8 | %76
 x8 | x8 | x8 | x8 | x8 | =F,2 G,2 ^G,2 =G,2 | x8 | x8 | x8 | x8 | x8 | x8 | x8 | x8 | x8 | x8 | %92
 x8 | x8 | x8 | x2 [^D=F^d]4 [^C^c]2 | x8 | x8 | x8 | x8 | x8 | x8 | x8 | x8 | x8 | x8 | x8 | x8 | %108
 x8 | x8 | x8 | x8 | x8 | x8 | x8 | x8 | x8 | x8 | x8 | x8 | x8 | x8 | x8 | x8 | x8 | x8 | %126
 [GB]2 x6 | [GB]2 x6 | x8 | x8 | x8 | x8 | x8 | x8 | x8 | x8 | x8 | x8 | x8 | x8 | x8 | x8 | x8 | %143
 x8 | x8 | x8 | x8 | x8 | x8 | x8 | x8 | x8 | x8 | x8 | x8 | x8 | x8 | x8 | x8 | x4 [CE]2 x2 | x8 | %161
 x8 | x8 | x8 | x8 | [Cc]4 [Dd]4 | x8 | [Gg]4 [Aa]4 | x5 .[Aa]3 | x8 | x8 | x8 | x8 | x8 | x8 | %175
 x4 [CE]2 x2 | x8 | x8 | x8 | x8 | x8 | x8 | x8 | x8 | x8 | x8 | x8 | x8 | x8 | x8 | x8 | x8 | x8 | %193
 x8 | x8 | x8 | x8 | x8 | x8 | x8 | x8 | x8 | x8 | x8 | x8 | x8 | x8 | x8 | x8 | x8 | x8 | x8 | %212
 x8 | x8 | x8 | x8 | x8 | x8 | x8 | x8 | x8 |] %221
V:3
 z8 | =F,,2 .[A,C]2 C,,2 .[A,C]2 | =F,,2 .[=F,A,^D]2 =F,,,2 .[F,A,D]2 | %3
 _B,,,2 .[=F,_B,D]2 =F,,,2 .[F,B,D]2 | _B,,,2 .[=F,_B,D]2 =F,,,2 .[F,B,D]2 | %5
 [=F,,C,]2 .[A,C]2 C,,2 .[A,C]2 | .[D,A,D]2 z2 z4 | D,2 G,2 [G,,D,]2 G,2 | .[C,_B,]2 z2 z4 | %9
 =F,,2 .[A,C]2 C,,2 .[A,C]2 | =F,,2 .[=F,A,^D]2 =F,,,2 .[F,A,D]2 | %11
 _B,,,2 .[=F,_B,D]2 =F,,,2 .[F,B,D]2 | _B,,,2 .[=F,_B,D]2 =F,,,2 .[F,B,D]2 | %13
 [=F,,C,]2 .[A,C]2 D,,2 .[=F,A,D]2 | D,2 G,2 C,,2 _B,2 | =F,,2 C,2 C,,2 [C,E,]2 | %16
 [=F,,C,]2 C,B,, C,2 z2 | [=F,,C,]2 .[A,C]2 C,,2 .[A,C]2 | [C,A,]2 ^G,A, _B,=B,C^C | %19
 [_B,,=F,]2 .[F,D]2 =F,,2 .[F,_B,D]2 | [A,,F,C]2 ^C,D, ^D,E,=F,^F, | %21
 [G,,D,]2 .[_B,D]2 D,,2 .[G,B,D]2 | [G,,E,]2 .[_B,C]2 C,,2 .[E,B,C]2 | [=F,,C,]2 .[A,C]2 C,,2 C,2 | %24
 [=F,,C,]2 C,2 C,2 z2 | [=F,,C,]2 .[A,C]2 C,,2 .[A,C]2 | [C,A,]2 ^G,A, _B,=B,C^C | %27
 [_B,,=F,]2 .[F,D]2 =F,,2 .[F,_B,D]2 | [A,,F,C]2 ^C,D, ^D,E,=F,^F, | %29
 [G,,D,]2 .[_B,D]2 D,,2 .[G,B,D]2 | [G,,E,]2 .[_B,C]2 C,,2 .[E,B,C]2 | [=F,,C,]2 .[A,C]2 C,,2 C,2 | %32
 [=F,,C,]2 C,2 D,2 E,2 | =F,,2 .[A,C]2 C,,2 .[A,C]2 | =F,,2 .[=F,A,^D]2 =F,,,2 .[F,A,D]2 | %35
 _B,,,2 .[=F,_B,D]2 =F,,,2 .[F,B,D]2 | _B,,,2 .[=F,_B,D]2 =F,,,2 .[F,B,D]2 | %37
 [=F,,C,]2 .[A,C]2 C,,2 .[A,C]2 | .[D,A,D]2 z2 z4 | D,2 G,2 [G,,D,]2 G,2 | .[C,_B,]2 z2 z4 | %41
 =F,,2 .[A,C]2 C,,2 .[A,C]2 | [=F,,=F,]2 [=F,,,F,,]2 [G,,,G,,]2 [A,,,A,,]2 | %43
 [_B,,,_B,,]2 .[=F,_B,D]2 =F,,,2 .[F,B,D]2 | _B,,,2 .[=F,_B,D]2 =F,,,2 .[F,B,D]2 | %45
 =F,,2 .[A,C]2 D,,2 .[^G,C=F]2 | G,,2 .[B,=F]2 C,,2 .[_B,E]2 | [=F,,C,]2 .[A,C]2 C,,2 .[_B,C]2 | %48
 [=F,,=F,]2 C,2 .[A,C]2 z2 | =F,,2 .[A,C]2 C,,2 .[A,C]2 | =F,,2 .[=F,A,^D]2 =F,,,2 .[F,A,D]2 | %51
 _B,,,2 .[=F,_B,D]2 =F,,,2 .[F,B,D]2 | _B,,,2 .[=F,_B,D]2 =F,,,2 .[F,B,D]2 | %53
 [=F,,C,]2 .[A,C]2 C,,2 .[A,C]2 | [D,A,D]4 z4 | D,2 G,2 [G,,D,]2 G,2 | [C,_B,]4 [C,,G,,C,]4 | %57
 =F,,2 .[A,C]2 C,,2 .[A,C]2 | =F,,2 .[=F,A,^D]2 =F,,,2 .[F,A,D]2 | %59
 _B,,,2 .[=F,_B,D]2 =F,,,2 .[F,B,D]2 | _B,,,2 .[=F,_B,D]2 =F,,,2 .[F,B,D]2 | %61
 =F,,2 .[A,C]2 D,,2 .[^G,C=F]2 | G,,2 .[B,=F]2 C,,2 .[_B,E]2 | [=F,,C,]2 .[A,C]2 C,,2 .[_B,C]2 | %64
 [=F,,,=F,,]2 C,/=F,/A,/C/ [=FAc]2 z2 | =F,,2 C,2 =F, C,3 | z A,, _B,,>A,, B,,2 z2 | %67
 _B,,2 ^D,2 ^D,,2 D,2 | ^G,,2 ^D,2 ^G,=G,=F,D, | =F,,2 G,,2 ^G,,2 A,,2 | _B,,2 C,2 ^C,2 D,2 | %71
 _B,,2 ^D,2 ^D,,2 .[D,^C]2 | [^G,,^D,]2 z2 z4 | =F,,2 G,,2 ^G,,2 A,,2 | _B,,2 C,2 ^C,2 D,2 | %75
 _B,,2 ^D,2 ^D,,2 D,2 | ^G,,2 ^D,2 ^G,=G, z D,- | [=F,,D,]2 G,,2 ^G,,2 A,,2 | %78
 _B,,2 =F,2 ^D,2 ^C,2 | G,,2 G,4 G,2 | C,,2 G,2 C2 C,2 | =F,,2 C,2 =F,2 C,2 | %82
 z A,, _B,,>A,, B,,2 z2 | _B,,2 ^D,2 ^D,,2 D,2 | ^G,,2 ^D,2 ^G,=G,=F,D, | =F,,2 G,,2 ^G,,2 A,,2 | %86
 _B,,2 C,2 ^C,2 D,2 | _B,,2 ^D,2 ^D,,2 .[D,^C]2 | [^G,,^D,]2 z2 z4 | =F,,2 G,,2 ^G,,2 A,,2 | %90
 _B,,2 C,2 ^C,2 D,2 | _B,,2 ^D,2 ^D,,2 D,2 | ^G,,2 ^D,2 ^G,=G,=F,D, | =F,,2 G,,2 ^G,,2 A,,2 | %94
 _B,,2 =F,2 ^D,2 ^C,2 | G,,2 G,4 G,2 | C,,2 G,2 C2 C,2 | [C,,G,,^D,G,C]2 B,C- CF, G,2 | %98
 .C,2 [C,,C,]2 [_B,,,_B,,] [C,,C,]3 | [_B,,,_B,,^C,=F,_B,]2 A,B,- B,E, F,2 | %100
 _B,,B,,C, ^D,2 ^C, =C,2 | [C,,G,,^D,G,C]2 B, C2 F, G,2 | .C,2 [C,,C,]2 [_B,,,_B,,] [C,,C,]3 | %103
 [_B,,,_B,,^C,=F,_B,]2 A, B,2 E, F,2 | _B,,^G,,=G,, B,,2 ^G,, =G,,2 | [G,,C,E,G,]2 G,F, G,F, G,2 | %106
 [G,,D,=F,G,]2 G,^F, G,F, G,2 | C,,2 C,,,2 C,,C,/E,/ G,<.C | G,,2 .[_B,C]2 C,2 D,2 | %109
 [G,,E,]2 .[_B,CE]2 C,,2 .[B,C]2 | =F,,2 .[A,C]2 C,,2 .[A,C=F]2 | %111
 [=F,,C,]2 .[A,C=F]2 C,,2 .[A,C]2 | G,,2 .[_B,E]2 C,,2 .[B,E]2 | G,,2 .[G,_B,C]2 C,,C,D,E, | %114
 =F,,2 C,2 C,,2 C,2 | =F,,2 C,2 C,,D,,E,,F,, | G,,2 A,,2 B,,2 C,2 | [D,,D,]2 .[G,B,]2 G,,,2 G,2 | %118
 C,,2 G,2 C2 D2 | E ^D2 E- E2 C2 | A4 E2 A2 | G4 C2 D2 | E^D .E3 D E2 | CB,CE- E^D E2 | A4 E2 A2 | %125
 G4 C2 D2 | E^D .E2 z D E2 | E^D .E2 z D E2 | B4 G2 A2 | B4 B,2 F/GA/ | B4 G2 A2 | B4 B,2 F/GA/ | %132
 B4 A2 G2 | [Fc]2 z2 [D,F,C]2 z z/ G,,/ | [D,B,]2 DE- EB, D2- | D2 G,2 =F,2 B,,>E,, | E,4 F,2 G,2 | %137
 B,4 E,2 F,/G,A,/ | _B,A,G, ^C2 =C ^C2 | _B,A,G, .^C3 [^G,C]2 | F,4 ^G,2 _B,2 | ^C4 F,2 ^G,/A,B,/ | %142
 CB,A, ^D2 =D ^D2 | CB,A, .^D3 [_B,D]2 | ^G,4 _B,2 C2 | ^D4 ^G,4 | E4 D4 | C4 B,2 A,2 | %148
 .[G,,G,]4 F,4 | =F,4 E,2 D,2 | A,,2 ^G,,/A,,C,/ E,2 G,,/A,,C,/ | E,6 z2 | %152
 A,,,2 [D,A,B,]4 [D,A,B,]2 | A,,,2 ^G,,/A,,C,/ E,4 | %154
 A,,/G,,/A,,/G,,/ A,,/G,,/A,,/G,,/ .A,,A,,/G,,/ A,,/G,,/A,,/G,,/ | F,,G,,^G,,A,, _B,, =B,,3 | %156
 C,2 .[G,CE]2 G,,2 .[G,CE]2 | C,2 .[G,CE]2 G,,2 .[G,B,=F]2 | C,,2 G,2 G,,,2 G,2 | %159
 C,,2 B,2 A,2 G,2 | G,,2 .[B,D]2 D,,2 .[B,D]2 | G,,2 .[B,D]2 D,,2 .[F,C]2 | G,,2 D,2 D,,2 D,2 | %163
 G,,2 G,2 G,2 G,2 | z2 [=F,,C,]2 [F,,C,]2 [E,,E,]2 | z2 [A,,E,A,]2 z2 [G,,D,G,]2 | %166
 z2 [C,G,C]2 [C,G,C]2 [B,,B,]2 | z2 [E,B,E]2 z2 [^D,A,^D]2 | D,2 .[B,=F]2 G,,2 .[B,F]2 | %169
 [EG]2 [EG][EG] [^DGA]2 [DGA][DGA] | [D=FB]2 .g>f g2 .G>^F | G2 G,>F, G,2 G,,2 | %172
 C,2 .[G,CE]2 G,,2 .[G,CE]2 | C,2 .[G,CE]2 G,,2 .[G,B,=F]2 | C,,2 G,2 G,,,2 G,2 | %175
 C,,2 B,2 A,2 G,2 | G,,2 .[B,D]2 D,,2 .[B,D]2 | G,,2 .[B,D]2 D,,2 .[F,C]2 | G,,2 D,2 D,,2 D,2 | %179
 G,,2 G,2 G,2 G,2 | D,2 .[G,B,]2 G,,2 .[G,B,=F]2 | D,2 .[G,B,]2 G,,2 .[G,B,=F]2 | %182
 C,2 .[G,C]2 G,,2 .[G,CE]2 | C,2 .[G,C]2 G,,2 .[G,CE]2 | D,,2 .[G,B,=F]2 G,,,2 .[G,B,F]2 | %185
 D,,2 .[G,B,=F]2 G,,,2 .[G,B,F]2 | C,2 .[G,CE]2 G,,2 .[G,CE]2 | C,2 .[G,CE]2 G,,C,E,G, | %188
 [A,,C,]4 [A,,D,]4 | [A,,C,]2 A,,,C,, E,,A,, z2 | [A,,C,]4 [A,,D,]4 | z2 A,,,C,, E,,A,, z2 | %192
 [A,,C,]4 [A,,D,]4 | [A,,C,]2 [A,,C,]2 [A,,D,]2 [A,,D,]2 | [A,,C,]2 [A,,C,]2 [A,,D,]2 [A,,D,]2 | %195
 [A,,C,]2 A,,,C,, E,,A,, z2 | [A,,E,]4 D,2 D,2 | A,,2 A,,2 [D,=F,]4 | [A,,E,]2 [A,,E,]2 D,2 D,2 | %199
 z2 [A,,E,]2 [D,=F,]4 | [A,,,E,,A,,]4 [C,,=F,,C,]4 | %201
 [A,,,E,,A,,]2 [A,,,E,,A,,]2 [C,,=F,,C,]2 [C,,F,,C,]2 | %202
 [A,,,E,,A,,]2 [A,,,E,,A,,]2 [C,,=F,,C,]2 [C,,F,,C,]2 | [A,,C,E,]2 z2 B,2 _B,2 | %204
 =F,,2 .[A,C]2 C,,2 .[A,C]2 | =F,,2 .[=F,A,^D]2 A,,,2 .[F,A,D]2 | %206
 _B,,,2 .[=F,_B,D]2 =F,,,2 .[F,B,D]2 | _B,,,2 .[=F,_B,D]2 =F,,,2 .[F,B,D]2 | %208
 =F,,2 .[A,C]2 D,,2 .[^G,C=F]2 | G,,2 .[B,=F]2 C,,2 .[_B,E]2 | [=F,C]2 [^C,B,]2 [C,B,]2 [C,B,]2 | %211
 [F,^C]2 [C,_B,]2 [C,B,]2 [C,B,]2 | [=F,C]2 [^C=FB]2 [CFB]2 [CFB]2 | [F^c]2 [CE_B]2 [CEB]2 [CEB]2 | %214
 [=Fc]8 | z4 =F,C,F,A, | z8 | z2 [=F,C]2 [F,C]2 [F,C]2 | [=F,C]2 z2 [=Fc]7/2 .=F,,/ | %219
 [=F,,,=F,,]8- | [F,,,F,,]8 |] %221
V:4
 x8 | x8 | x8 | x8 | x8 | x8 | x8 | x8 | x8 | x8 | x8 | x8 | x8 | x8 | x8 | x8 | x8 | x8 | x8 | %19
 x8 | x8 | x8 | x8 | x8 | x8 | x8 | x8 | x8 | x8 | x8 | x8 | x8 | x8 | x8 | x8 | x8 | x8 | x8 | %38
 x8 | x8 | x8 | x8 | x8 | x8 | x8 | x8 | x8 | x8 | x8 | x8 | x8 | x8 | x8 | x8 | x8 | x8 | x8 | %57
 x8 | x8 | x8 | x8 | x8 | x8 | x8 | x8 | x8 | _B,,,8 | x8 | x8 | x8 | x8 | x8 | x8 | x8 | x8 | x8 | %76
 x6 .=F,2 | x8 | x8 | x8 | x8 | x8 | _B,,,8 | x8 | x8 | x8 | x8 | x8 | x8 | x8 | x8 | x8 | x8 | %93
 x8 | x8 | x8 | x8 | x8 | x8 | x8 | x8 | x8 | x8 | x8 | x8 | x8 | x8 | x8 | x8 | x8 | x8 | x8 | %112
 x8 | x8 | x8 | x8 | x8 | x8 | x8 | x8 | x8 | x8 | x8 | x8 | x8 | x8 | x8 | x8 | x8 | x8 | x8 | %131
 x8 | x8 | x8 | x8 | x8 | x8 | x8 | x8 | x8 | x8 | x8 | x8 | x8 | x8 | x8 | x8 | x15/2 G,,/- | x8 | %149
 G,,8 | x8 | x8 | x8 | x8 | x8 | x8 | x8 | x8 | x8 | x8 | x8 | x8 | x8 | x8 | x8 | x8 | x8 | x8 | %168
 x8 | x8 | x8 | x8 | x8 | x8 | x8 | x8 | x8 | x8 | x8 | x8 | x8 | x8 | x8 | x8 | x8 | x8 | x8 | %187
 x8 | x8 | x8 | x8 | x8 | x8 | x8 | x8 | x8 | x8 | x8 | x8 | x8 | x8 | x8 | x8 | x2 C,6 | x8 | x8 | %206
 x8 | x8 | x8 | x8 | x8 | x8 | x8 | x8 | x8 | x8 | x8 | x8 | x8 | x8 | x8 |] %221

